build/img/img-works-3.svg

<?xml version="1.0" encoding="UTF-8"?>
<svg width="61px" height="54px" viewBox="0 0 61 54" version="1.1" xmlns="http://www.w3.org/2000/svg" xmlns:xlink="http://www.w3.org/1999/xlink">
    <!-- Generator: Sketch 47.1 (45422) - http://www.bohemiancoding.com/sketch -->
    <title>works-3</title>
    <desc>Created with Sketch.</desc>
    <defs></defs>
    <g id="Symbols" stroke="none" stroke-width="1" fill="none" fill-rule="evenodd">
        <g id="works-3" fill-rule="nonzero" fill="#FFFFFF">
            <path d="M58.6471429,6.26396859 L54.0036735,6.26396859 L54.0036735,1.57852008 C54.0069925,1.16102676 53.8445107,0.75948452 53.5523206,0.463088881 C53.2601306,0.166693242 52.8624264,-1.33604294e-05 52.447551,2.78176086e-15 L42.7622449,2.78176086e-15 C38.210594,0.00507940484 33.8295932,1.74397672 30.5,4.86710359 C27.1704068,1.74397672 22.789406,0.00507940484 18.2377551,0 L8.55244898,0 C7.69302628,0 6.99632653,0.701118566 6.99632653,1.56599215 L6.99632653,6.26396859 L2.35285714,6.26396859 C1.0654677,6.26385524 0.017028956,7.30498751 0,8.60042887 L0,45.7708185 C1.38211438e-16,46.3987928 0.247889594,47.001047 0.689135902,47.4450919 C1.13038221,47.8891368 1.72884063,48.1385986 2.35285714,48.1385986 L17.8020408,48.1385986 C20.4433608,48.1441444 22.9568507,49.2835281 24.7112245,51.2705829 L24.9290816,51.5023497 C25.2106204,51.7951201 25.5144712,52.0652937 25.8378571,52.3104017 C25.9685714,52.4043612 26.0992857,52.4983207 26.217551,52.5734884 C26.5048029,52.764311 26.8042258,52.9358971 27.1138776,53.0871338 L27.2694898,53.1623014 C27.4313265,53.243733 27.5993878,53.3126367 27.767449,53.3752764 C27.9814973,53.4558303 28.1996646,53.524832 28.4210204,53.5819873 C28.5704082,53.6258351 28.7695918,53.6822108 29.0061224,53.7260586 C29.3430036,53.7933555 29.6840771,53.8373065 30.0269388,53.8576019 L30.5,53.8701299 C31.0142988,53.8690275 31.5272199,53.8165708 32.0312245,53.7135307 C32.2304082,53.6759468 32.3922449,53.6320991 32.4856122,53.6007792 C32.7451256,53.5362203 33.0007488,53.4567464 33.2512245,53.3627484 L33.3196939,53.3627484 L33.7118367,53.1936213 L33.8612245,53.1247176 C34.19319,52.963808 34.5135035,52.7796108 34.8197959,52.5734884 L35.1434694,52.3479855 C35.5039566,52.0760869 35.8412511,51.774368 36.1518367,51.445974 L36.2016327,51.3958623 L36.3261224,51.251791 C38.0617221,49.2820243 40.5570892,48.1611187 43.1730612,48.1761824 L58.6471429,48.1761824 C59.2776844,48.1762624 59.8818729,47.921648 60.3242087,47.469441 C60.7665445,47.0172339 61.0100086,46.4052793 61,45.7708185 L61,8.60042887 C60.982971,7.30498751 59.9345323,6.26385524 58.6471429,6.26396859 Z M10.1085714,3.13198429 L18.2377551,3.13198429 C22.2756819,3.1348494 26.1394339,4.787359 28.9438776,7.71094533 L28.9438776,7.71094533 L28.9438776,11.7136213 C28.9438776,12.5784948 29.6405773,13.2796134 30.5,13.2796134 C31.3594227,13.2796134 32.0561224,12.5784948 32.0561224,11.7136213 L32.0561224,7.72973724 L32.0561224,7.72973724 C34.8574102,4.79923468 38.7215656,3.13977002 42.7622449,3.13198429 L50.8914286,3.13198429 L50.8914286,37.9345938 L42.7622449,37.9345938 C38.9071606,37.9371499 35.1545764,39.1842352 32.0561224,41.4925279 L32.0561224,35.4477982 C32.0561224,34.5829247 31.3594227,33.8818061 30.5,33.8818061 C29.6405773,33.8818061 28.9438776,34.5829247 28.9438776,35.4477982 L28.9438776,41.4925279 C25.8454236,39.1842352 22.0928394,37.9371499 18.2377551,37.9345938 L10.1085714,37.9345938 L10.1085714,3.13198429 Z M33.8736735,49.2723769 C33.681271,49.4650798 33.4730489,49.6410957 33.2512245,49.7985503 L33.0644898,49.9300936 C32.877683,50.0566811 32.6821543,50.1697185 32.4793878,50.2683479 L32.3735714,50.3184597 L32.1245918,50.4249471 C31.9718642,50.4819714 31.8159926,50.5300751 31.6577551,50.5690184 L31.390102,50.6316581 C31.0974951,50.6958802 30.7994134,50.7315412 30.5,50.7381456 L30.2323469,50.7381456 C30.0232635,50.725296 29.8152965,50.6980888 29.609898,50.656714 C29.4791837,50.656714 29.3733673,50.6003383 29.2488776,50.5627545 C29.1182003,50.5301123 28.9893727,50.4903825 28.8629592,50.4437391 L28.5953061,50.3247236 L28.4770408,50.2683479 C28.2878111,50.1761827 28.1048288,50.0715561 27.9292857,49.9551495 L27.7176531,49.8048143 C27.5181735,49.6527873 27.3308632,49.4852333 27.157449,49.3036968 L27.0391837,49.1784174 C24.6917287,46.5264649 21.3312082,45.0087413 17.8020408,45.0066143 L3.1122449,45.0066143 L3.1122449,9.39595288 L6.99632653,9.39595288 L6.99632653,39.5256418 C6.99632653,40.3905154 7.69302628,41.0916339 8.55244898,41.0916339 L18.2377551,41.0916339 C22.4770822,41.0972847 26.5133452,42.9197695 29.3360204,46.1028088 C29.6312596,46.4356367 30.0535497,46.6259348 30.4968878,46.6259348 C30.9402258,46.6259348 31.3625159,46.4356367 31.6577551,46.1028088 C34.4804303,42.9197695 38.5166933,41.0972847 42.7560204,41.0916339 L52.447551,41.0916339 C53.3069737,41.0916339 54.0036735,40.3905154 54.0036735,39.5256418 L54.0036735,9.39595288 L57.8877551,9.39595288 L57.8877551,45.0379342 L43.1979592,45.0379342 C39.6740741,45.0147439 36.3125317,46.5268676 33.9794898,49.1846814 L33.8736735,49.2723769 Z" id="Shape"></path>
            <path d="M26.4665306,30.7435578 C27.0186916,31.2993489 27.767659,31.6115997 28.5486224,31.6115997 C29.3295859,31.6115997 30.0785533,31.2993489 30.6307143,30.7435578 L41.3119388,19.9945877 C41.8642269,19.4389246 42.1745098,18.685207 42.1745098,17.8992902 C42.1745098,17.1133735 41.8642269,16.3596558 41.3119388,15.8039928 L38.8906122,13.367309 C38.3384512,12.811518 37.5894839,12.4992671 36.8085204,12.4992671 C36.0275569,12.4992671 35.2785896,12.811518 34.7264286,13.367309 L34.7264286,13.367309 L28.5455102,19.5874298 L26.2673469,17.2948173 C25.7151859,16.7390263 24.9662186,16.4267754 24.1852551,16.4267754 C23.4042916,16.4267754 22.6553243,16.7390263 22.1031633,17.2948173 L19.6818367,19.7315011 C19.1295486,20.2871641 18.8192657,21.0408818 18.8192657,21.8267986 C18.8192657,22.6127153 19.1295486,23.366433 19.6818367,23.922096 L26.4665306,30.7435578 Z M24.1883673,19.6375415 L27.4437755,22.9135971 C28.0611882,23.5038046 29.0298322,23.5038046 29.6472449,22.9135971 L36.8054082,15.7037693 L38.9902041,17.9024222 L28.5455102,28.4133615 L22.0097959,21.8361945 L24.1883673,19.6375415 Z" id="Shape"></path>
        </g>
    </g>
</svg>

<svg width="61" height="54" viewBox="0 0 61 54" xmlns="http://www.w3.org/2000/svg"><title>works-3</title><g id="Symbols" fill="none" fill-rule="evenodd"><g id="works-3" fill-rule="nonzero" fill="#FFF"><path d="M58.647 6.264h-4.643V1.579a1.571 1.571 0 0 0-.452-1.116A1.551 1.551 0 0 0 52.448 0h-9.686A17.952 17.952 0 0 0 30.5 4.867 17.952 17.952 0 0 0 18.238 0H8.552c-.859 0-1.556.701-1.556 1.566v4.698H2.353A2.36 2.36 0 0 0 0 8.6v37.17c0 .629.248 1.231.69 1.675.44.444 1.039.694 1.663.694h15.449a9.243 9.243 0 0 1 6.91 3.132l.217.231c.282.293.585.563.909.808.13.094.261.188.38.263.287.191.586.363.896.514l.155.075a6.394 6.394 0 0 0 1.152.42 7.462 7.462 0 0 0 1.606.276l.473.012a7.727 7.727 0 0 0 1.531-.156 3.8 3.8 0 0 0 .455-.113c.26-.065.515-.144.765-.238h.069l.392-.17.15-.068c.331-.161.652-.345.958-.552l.323-.225a8.147 8.147 0 0 0 1.009-.902l.05-.05.124-.144a9.056 9.056 0 0 1 6.847-3.076h15.474c.63 0 1.235-.254 1.677-.707A2.376 2.376 0 0 0 61 45.771V8.6a2.36 2.36 0 0 0-2.353-2.337zM10.11 3.132h8.129a14.85 14.85 0 0 1 10.706 4.579v4.003c0 .864.697 1.566 1.556 1.566.86 0 1.556-.702 1.556-1.566V7.73a14.85 14.85 0 0 1 10.706-4.598h8.13v34.803h-8.13a17.938 17.938 0 0 0-10.706 3.558v-6.045c0-.865-.697-1.566-1.556-1.566-.86 0-1.556.7-1.556 1.566v6.045a17.938 17.938 0 0 0-10.706-3.558h-8.13V3.132zm23.765 46.14c-.193.193-.401.37-.623.527l-.187.131c-.186.127-.382.24-.585.338l-.105.05-.25.107a4.213 4.213 0 0 1-.466.144l-.268.063c-.293.064-.59.1-.89.106h-.268a4.572 4.572 0 0 1-.622-.081c-.13 0-.237-.057-.361-.094a3.717 3.717 0 0 1-.386-.12l-.268-.118-.118-.057a4.772 4.772 0 0 1-.548-.313l-.211-.15a4.79 4.79 0 0 1-.56-.501l-.119-.126a12.346 12.346 0 0 0-9.237-4.171H3.112V9.396h3.884v30.13c0 .865.697 1.566 1.556 1.566h9.686a14.86 14.86 0 0 1 11.098 5.01 1.552 1.552 0 0 0 2.322 0 14.86 14.86 0 0 1 11.098-5.01h9.692c.859 0 1.556-.701 1.556-1.566V9.396h3.884v35.642h-14.69a12.16 12.16 0 0 0-9.219 4.147l-.105.087z" id="Shape"/><path d="M26.467 30.744a2.935 2.935 0 0 0 4.164 0l10.68-10.75a2.972 2.972 0 0 0 0-4.19l-2.42-2.437a2.935 2.935 0 0 0-4.165 0l-6.18 6.22-2.279-2.292a2.935 2.935 0 0 0-4.164 0l-2.421 2.437a2.972 2.972 0 0 0 0 4.19l6.785 6.822zm-2.279-11.106l3.256 3.276c.617.59 1.586.59 2.203 0l7.158-7.21 2.185 2.198-10.444 10.511-6.536-6.577 2.178-2.198z" id="Shape"/></g></g></svg>
